!!!!SEGMENT: pl-wnifc--13846--059_anonim--piesni-polskie-i-ruskie-ludu-galicyjskiego-59-i-szumyt-i-hudyt.krn
!!!kernsource:
!!!cenid: 18xx:3281
!!!COM: Anonim
!!!COM-rismid: pe30004985
!!!CDT:
!!!CNT:
!!!GTL: Pieśni polskie i ruskie ludu galicyjskiego
!!!OTL: 59. I szumyt, i hudyt
!!!PDT: 1833
!!!AGN:
!!!SMS-siglum: PL-Wnifc
!!!SMS-shelfmark: 13846
!!!SMS-shelfwork: 059 G
!!!NIFC-rismid: 1001037067
!!!URL-scan: http://repozytorium.nifc.pl/skany/pl-wnifc-nut--13846
!!!ONB-nifc:
!!!AIN: 1 piano 1 vox
!!!key: B
!!!OMD: Moderato.
**kern	**kern	**kern	**text
*part2	*part2	*part1	*part1
*staff3	*staff2	*staff1	*staff1
*I"FORTEPIAN.	*I"FORTEPIAN.	*I"GŁOS.	*
*Ipiano	*Ipiano	*Ivox	*
*ICklav	*ICklav	*ICvox	*
*IGacmp	*IGacmp	*IGsolo	*
*>[A,B,B]	*>[A,B,B]	*>[A,B,B]	*>[A,B,B]
*>A	*>A	*>A	*>A
*clefF4	*clefG2	*clefG2	*
*k[b-e-]	*k[b-e-]	*k[b-e-]	*
*B:	*B:	*B:	*
*M2/4	*M2/4	*M2/4	*
=1-	=1-	=1-	=1-
!	!	!LO:TX:a:t=D.b.T.7	!
4BB-/ 4BBB-/	8b-/L 8f/ 8d/|	8b-\	I
.	8f/J 8d/|	8f/	szu-
4F\ 4BB-\	4dd/ 4b-/ 4f/ 4d/^	4dd\	-myt,
=2	=2	=2	=2
4BB-/ 4BBB-/	8b-/L 8d/	8b-\	i
.	8f/J 8d/	8f/	hu
4F\ 4BB-\	4dd/ 4b-/ 4f/ 4d/^	4dd\	dyt,
=3	=3	=3	=3
4BB-/ 4BBB-/	8b-/L 8f/ 8d/	8b-\	dri-
.	8f/J 8d/	8f/	-bny
4F\ 4BB-\	4dd/ 4b-/ 4f/ 4d/	4dd\	do
!!LO:LB:g=original
=4	=4	=4	=4
*	*^	*	*
!LO:TX:t=P:problem=mixed beam	!	!	!	!
8FF/L	16cc/LL 16c/	4c\	(16cc\LL	szczyk
.	(<16b-/	.	16b-\JJ)	.
8A\ 8F\	16a/	.	(16a\LL	i-
.	16g/JJ)	.	16g\JJ)	.
8c\J 8A\ 8F\	4f/	4f\	4f/	de
8r	.	.	.	.
*	*v	*v	*	*
=5||	=5||	=5||	=5||
*>B	*>B	*>B	*>B
8BBB-/L	8d/L 8B-/	8d/	a
8BB-/|	8f/ 8d/	8f/	ktoż
8D\|	8f/ 8d/	8f/	me-
8BB-/|J	8f/J 8d/	8f/	-ne
=6	=6	=6	=6
8EE-/|L	8e-/L 8G/	8e-/	mo-
8BB-/|	8g/ 8e-/	8g/	-ło-
8E-\|	8g/ 8e-/	8g/	-du-
8BB-/|J	8g/J 8e-/	8g/	-ju
!!LO:PB:g=original
=7	=7	=7	=7
8FF/	8f/L 8e-/ 8A/	8f/	do
8r	8f/|J	8f/	do-
8F\ 8FF\	8.ee-\L 8.f\	8.ee-\	-moń-
8r	.	.	.
.	16a\Jk 16f\ 16e-\	16a/	-ku
=8	=8	=8	=8
8F\L 8BB-\	8b-/L 8f/ 8d/	8b-\	za-
8F\J 8BB-\	8b-/J 8f/ 8d/	8b-\	-we-
8F\ 8BB-\	8b-/ 8f/ 8d/	8b-\	-de
8r	8r	8r	.
=:|!	=:|!	=:|!	=:|!
*-	*-	*-	*-
!!!system-decoration: s1{(s2,s3)}
!!!RDF**kern: < = below
!!!RDF**kern: | = vertical stroke
!!!ENC: Marta Lawrence
!!!END: 2021-11-10
